public/assets/google-sheets.svg

<svg height="24" viewBox="0 0 24 33" width="24" xmlns="http://www.w3.org/2000/svg"><path d="m15.75 0 8.25 8.25-4.125.75-4.125-.75-.75-4.125zm0 0" fill="#188038"/><path d="m15.75 8.25v-8.25h-13.5c-1.242188 0-2.25 1.007812-2.25 2.25v28.5c0 1.242188 1.007812 2.25 2.25 2.25h19.5c1.242188 0 2.25-1.007812 2.25-2.25v-22.5zm0 0" fill="#34a853"/><path d="m4.5 12.75v10.875h15v-10.875zm6.5625 9h-4.6875v-2.625h4.6875zm0-4.5h-4.6875v-2.625h4.6875zm6.5625 4.5h-4.6875v-2.625h4.6875zm0-4.5h-4.6875v-2.625h4.6875zm0 0" fill="#fff"/></svg>

<?xml version="1.0" encoding="UTF-8"?>
<svg xmlns="http://www.w3.org/2000/svg" xmlns:xlink="http://www.w3.org/1999/xlink" width="24px" height="24px" viewBox="0 0 24 33" version="1.1">
<g id="surface1">
<path style=" stroke:none;fill-rule:nonzero;fill:rgb(9.411765%,50.196081%,21.960784%);fill-opacity:1;" d="M 15.75 0 L 24 8.25 L 19.875 9 L 15.75 8.25 L 15 4.125 Z M 15.75 0 "/>
<path style=" stroke:none;fill-rule:nonzero;fill:rgb(20.392157%,65.882355%,32.549021%);fill-opacity:1;" d="M 15.75 8.25 L 15.75 0 L 2.25 0 C 1.007812 0 0 1.007812 0 2.25 L 0 30.75 C 0 31.992188 1.007812 33 2.25 33 L 21.75 33 C 22.992188 33 24 31.992188 24 30.75 L 24 8.25 Z M 15.75 8.25 "/>
<path style=" stroke:none;fill-rule:nonzero;fill:rgb(100%,100%,100%);fill-opacity:1;" d="M 4.5 12.75 L 4.5 23.625 L 19.5 23.625 L 19.5 12.75 Z M 11.0625 21.75 L 6.375 21.75 L 6.375 19.125 L 11.0625 19.125 Z M 11.0625 17.25 L 6.375 17.25 L 6.375 14.625 L 11.0625 14.625 Z M 17.625 21.75 L 12.9375 21.75 L 12.9375 19.125 L 17.625 19.125 Z M 17.625 17.25 L 12.9375 17.25 L 12.9375 14.625 L 17.625 14.625 Z M 17.625 17.25 "/>
</g>
</svg>
